X: 10477
T: Donna's
R: waltz
M: 3/4
K: Amajor
|d c>B|:A2 A>B A>F|D2 D>E F>D|E2 e>c B>A|B3 d c>B|
A2 A>B A>F|D2 D>E F>D|E2 F2 A2|1 E3 d c>B:|2 A2 c2 e2||
|:a6|g6|f3 g f>e|c4 c>e|
f3 g f>e|c>B A2 c2|B>A F2 c2|B3 d c>B|
A2 A>B A>F|D2 D>E F>D|E2 e>c B>A|B2B d c>B|
A2 A>B A>F|D2 D>E F>D|E2 F2 A2|1 A2 c2 e2:|2 A6||

